X:463
T:The Grassy Green Pillow
N:"Moderate" "collected by J.O'Neill"
N:Irish title: an ceannaird feura.c-glas
B:O'Neill's 463
Z:Transcribed by henrik.norbeck@mailbox.swipnet.se
M:C
L:1/8
K:Dm
dc|B2 dcB A2 DE|FGAB c2 fgfe|dcAG FAcB|A4 z2 dc|
B2 AG FDDE|FGAB cefgfe|dcAF GFDD|D4 z2||
A2|d2 de f3/2g/4f/4 ef|gfed cA G3/2F/4G/4|Adde fdcA|d6 dc|
B2 dcB A2 DE|FGAB cefgfe|dcAF GFDD|D4 z2||
